packages/ckeditor5-icons/theme/icons/pin.svg

<svg viewBox="0 0 20 20" xmlns="http://www.w3.org/2000/svg">
	<path d="M3.45765 17.5998L2.22021 17.7766L2.39699 16.5391L6.63963 12.2965L7.70029 13.3571L3.45765 17.5998Z"/>
	<path d="M17.7766 7.87707C16.9042 8.74944 15.8349 9.12545 15.0089 8.58832L12.1197 12.1197C13.2913 13.2913 12.9377 14.8372 11.7662 16.0088L3.98798 8.23062C5.15955 7.05905 6.7055 6.7055 7.87707 7.87707L11.4078 4.98718C10.8714 4.16128 11.2476 3.0923 12.1197 2.22021L17.7766 7.87707Z"/>
</svg>

<svg xmlns="http://www.w3.org/2000/svg" viewBox="0 0 20 20"><path d="m3.458 17.6-1.238.177.177-1.238 4.243-4.243 1.06 1.061zm14.319-9.723c-.873.872-1.942 1.248-2.768.711l-2.89 3.532c1.172 1.171.819 2.717-.353 3.889L3.988 8.23c1.172-1.172 2.718-1.525 3.89-.354l3.53-2.89c-.537-.826-.16-1.895.712-2.767z"/></svg>
